X:1
T:Title
%%score { ( 1 3 ) | ( 2 4 ) }
L:1/8
M:4/4
K:Ab
V:1 treble nm="Grand Piano"
V:3 treble 
V:2 bass 
V:4 bass 
V:1
 z4 z2[Q:1/4=100] [CE]>[CE] | [CA]>[CA] [CG]>[CA] [_CF]>[CA] [C=E]>[CA] | %2
 [CE]2 [Ec]2 [Ec]2 [EA]>B | c>c _c>=c e>c d>c | B6 E>E | %5
 [CA]>[CA] [CG]>[CA] [_CF]>[CA] [C=E]>[CA] | [CE]2 [Ec]2 [Ec]2 [Ec]>[Ed] | e>e e>c B>=A B>c | %8
[M:3/4] [CA]6 |[M:1/4] c>d |[M:4/4] e>e e>=d f>e c>e | d6 z2 | %12
 [Gd]>[Gd] [Gd]>[Gc] [Ge]>[Gd] [GB]>[Gd] | c6 z2 | [CA]>[CA] [CG]>[CA] [_CF]>[CA] [C=E]>[CA] | %15
 [CE]2 [Ec]2 [Ec]2 [Ec]>d | e>e e>c B>=A B>c |[M:3/4] A6 |] %18
V:2
 z4 z2 [A,,A,]>[A,,A,] | [A,,E,]>[A,,E,] [A,,E,]>[A,,E,] [A,,=D,]>[A,,D,] [A,,D,]>[A,,D,] | %2
 [A,,E,]2 [A,,A,]2 [A,,A,]2 [C,A,]>[E,G,E] | [A,E]>[A,E] [A,=D]>[A,E] [A,CE]>[A,E] [G,B,E]>[A,E] | %4
 [E,G,E]6 .[E,G,D]>[E,G,D] | [A,,A,]>[A,,E,] [A,,E,]>[A,,E,] [A,,=D,]>[A,,D,] [A,,D,]>[A,,D,] | %6
 [A,,E,]2 [A,,A,]2 [A,,A,]2 [A,,A,]>[A,,B,] | %7
 [A,CE]>[A,CE] [A,CE]>[A,E] [E,G,D]>[E,_G,C] [E,=G,D]>[E,G,E] |[M:3/4] [A,,A,]6 | %9
[M:1/4][K:treble] [A,E]>[A,E] |[M:4/4] [A,CA]>[A,CA] [A,CA]>[A,_CA] [A,DA]>[A,=CA] [A,EA]>[A,CA] | %11
 [E,B,]2 [G,B,]>B, [E,B,]2 [E,D]>[E,C] | [E,B,]>[E,B,] [E,B,]>[E,B,] [E,B,]>[E,B,] [E,E]>[E,B,] | %13
 [A,,A,]2 [C,A,]>[E,A,] [A,,A,]2 [A,,A,]>[A,,E,] | %14
 [A,,E,]>[A,,E,] [A,,E,]>[A,,E,] [A,,=D,]>[A,,D,] [A,,D,]>[A,,D,] | %15
 [A,,E,]2 [A,,A,]2 [A,,A,]2 [A,,A,]>[G,,B,E] | %16
 [A,CE]>[A,CE] [A,CE]>[A,E] [E,G,D]>[E,_G,C] [E,=G,D]>[E,G,E] |[M:3/4] z2 F,>F, E,2 |] %18
V:3
 x8 | x8 | x8 | x8 | x8 | x8 | x8 | x8 |[M:3/4] x6 |[M:1/4] x2 |[M:4/4] x8 | G2 G>G G2 [GB]>[Gc] | %12
 x8 | A2 A>A A2 [Ec]>[DB] | x8 | x8 | x8 |[M:3/4] [A,C]2 D>_C =C2 |] %18
V:4
 x8 | x8 | x8 | x8 | x8 | x8 | x8 | x8 |[M:3/4] x6 |[M:1/4][K:treble] x2 |[M:4/4] x8 | x8 | x8 | %13
 x8 | x8 | x8 | x8 |[M:3/4] A,,6 |] %18

